X: 11936
T: Empty Wallet
R: waltz
M: 3/4
K: Gmajor
D2|:B3A G2|E3E GE|A4 B/A/G|A4 Bc|
d3B G2|e2 d2 BG|A3B AG|E4 D2|
B3A G2|E3E GE|A4 B/A/G|A4 B2|
G3F E2|E2 F2 D2|E6-|E4 D2:|
|:Bd d2 BG|Ad d2 A2|GF GB AG|FG FE D2|
EG G2 E2|DG G2 AB|c3B AG|1 A3B/A/ GA:|2 G6||

